X: 15897
T: Gráinne's
R: jig
M: 6/8
K: Gmajor
B2 c|:dBF GDB,|G,{/B,}A,G, DB,D|EcB {/c} BAG|FED cBA|
B/c/dB GBG|E{/F}E{/D}E CEG|DGc BAF|1 AGF GBc:|2 AGF G2 A||
|:B/c/BA GBg|ecA E{/F}E{/D}E|DFA e{/g}f{/e}f|ed^c de=c|
B/c/dB GBg|ecA E{/F}E{/D}E|DGc {/d}BAF|1 AGF G2 A:|2 AGF G{/A}GD||
|:GBd f{/a}g{/f}g|edc BA^G|Ace a2 (3g/a/g/|fd^c def|
gdB GBg|ecA E{/F}E{/D}E|DGc BAF|1 AGF GGD:|2 AGF GBc||

